dist/svgs/unicons/line/voicemail-rectangle.svg

<svg xmlns="http://www.w3.org/2000/svg" viewBox="0 0 24 24"><path d="M20 4H4a3 3 0 00-3 3v10a3 3 0 003 3h16a3 3 0 003-3V7a3 3 0 00-3-3zm1 13a1 1 0 01-1 1H4a1 1 0 01-1-1V7a1 1 0 011-1h16a1 1 0 011 1zm-5-8a3 3 0 00-2.82 4h-2.36A3 3 0 108 15h8a3 3 0 000-6zm-8 4a1 1 0 111-1 1 1 0 01-1 1zm8 0a1 1 0 111-1 1 1 0 01-1 1z"/></svg>

<svg xmlns="http://www.w3.org/2000/svg" viewBox="0 0 24 24"><path d="M20,4H4A3,3,0,0,0,1,7V17a3,3,0,0,0,3,3H20a3,3,0,0,0,3-3V7A3,3,0,0,0,20,4Zm1,13a1,1,0,0,1-1,1H4a1,1,0,0,1-1-1V7A1,1,0,0,1,4,6H20a1,1,0,0,1,1,1ZM16,9a3,3,0,0,0-2.82,4H10.82A3,3,0,1,0,8,15h8a3,3,0,0,0,0-6ZM8,13a1,1,0,1,1,1-1A1,1,0,0,1,8,13Zm8,0a1,1,0,1,1,1-1A1,1,0,0,1,16,13Z"/></svg>
